X: 1411
T: Elanor Carney's Mazurka
C:Bob Rummery
B: australian traditional tunes wiki
M:3/4
L:1/8
R: Mazurka
Q: 1/4=100
K:G
V:1 
zzBd|:"G"g2g>a b>a|g>ed2(3dcB|"D7"c2c>d e>c|"G" d>BG2z2|"D7"F>G A>B c>A|1
"G"B>c d>e d>B|"A7"^c2c>d e>f|"D"d2z2Bd:|2"G"B>c d>e d>B|"D7"c>B A>G F>A|"G"G4dB||
|:"D7"A2A>B c>e|"G"d2B3d|"G"g2g>a (3gfe|d2B3d|
"G"g2g>a g>a|b>a g>e d>B|"D7"A>B c>A F>A|"G"G4z2:|
% abcbook-tune_id 6342d53ac46794fcc0804d7e


% abcbook-boost 0
% abcbook-tablature 
% abcbook-transpose 
% abcbook-lastupdated 1665324363848
% abcbook-soundfonts 
% abcbook-repeats 1
% NFF Book 2018

